X: 6
T: O'Rourke's
Z: b
S: https://thesession.org/tunes/90#setting46045
R: reel
M: 4/4
L: 1/8
K: Amix
|:ed|"A"(3cBA eA fAeA|c2ec "G"dfed|"A"(3cBA eA fAeA|"G"fage "D"d2:|
ef|"Em"g2 f2 "C"e2 ef|"G"gefd "A"ea (3aaa|"Em"egfg "C"e2cd|"D"ea"A7"ge "D"d2 ef|
"Em"g2 f2 "C"e2 ef|"G"gefd"A" ea (3aaa|"Em"bgaf "G"gfed|"D"eaaf "A"gfed|

